src/assets/icons/sparkles.svg

<svg width="14" height="14" viewBox="0 0 14 14" fill="none" xmlns="http://www.w3.org/2000/svg">
<g id="sparkles">
<g clip-path="url(#clip0_295_4704)">
<path id="Vector" fill-rule="evenodd" clip-rule="evenodd" d="M12.8579 1.75337L13.8394 2.08054C14.0535 2.1519 14.0535 2.45474 13.8394 2.5261L12.8579 2.85327C12.7878 2.87664 12.7328 2.93167 12.7094 3.00179L12.3822 3.9833C12.3109 4.19739 12.008 4.19739 11.9367 3.9833L11.6095 3.00179C11.5861 2.93167 11.5311 2.87664 11.461 2.85327L10.4795 2.5261C10.2654 2.45474 10.2654 2.1519 10.4795 2.08054L11.461 1.75337C11.5311 1.72999 11.5861 1.67497 11.6095 1.60485L11.9367 0.623341C12.008 0.409245 12.3109 0.409244 12.3822 0.62334L12.7094 1.60485C12.7328 1.67497 12.7878 1.72999 12.8579 1.75337ZM5.26603 1.55768C5.46823 0.951065 6.32626 0.951076 6.52846 1.55768L7.73123 5.16598L11.3395 6.36875C11.9461 6.57095 11.9461 7.42898 11.3395 7.63118L7.73123 8.83395L6.52846 12.4423C6.32626 13.0489 5.46823 13.0489 5.26603 12.4423L4.06326 8.83395L0.454953 7.63118C-0.151657 7.42898 -0.151646 6.57095 0.454954 6.36875L4.06326 5.16598L5.26603 1.55768ZM5.89724 3.37706L5.09672 5.77863C5.03049 5.97731 4.87459 6.13321 4.67591 6.19944L2.27434 6.99997L4.67591 7.80049C4.87459 7.86672 5.03049 8.02262 5.09672 8.2213L5.89724 10.6229L6.69777 8.2213C6.764 8.02262 6.9199 7.86672 7.11858 7.80049L9.52015 6.99997L7.11858 6.19944C6.9199 6.13321 6.764 5.97731 6.69777 5.77863L5.89724 3.37706ZM13.8394 11.4738L12.8579 11.1467C12.7878 11.1233 12.7328 11.0683 12.7094 10.9981L12.3822 10.0166C12.3109 9.80254 12.008 9.80254 11.9367 10.0166L11.6095 10.9981C11.5861 11.0683 11.5311 11.1233 11.461 11.1467L10.4795 11.4738C10.2654 11.5452 10.2654 11.848 10.4795 11.9194L11.461 12.2466C11.5311 12.2699 11.5861 12.325 11.6095 12.3951L11.9367 13.3766C12.008 13.5907 12.3109 13.5907 12.3822 13.3766L12.7094 12.3951C12.7328 12.325 12.7878 12.2699 12.8579 12.2466L13.8394 11.9194C14.0535 11.848 14.0535 11.5452 13.8394 11.4738Z" fill="black"/>
</g>
</g>
<defs>
<clipPath id="clip0_295_4704">
<rect width="14" height="14" fill="white"/>
</clipPath>
</defs>
</svg>

<svg xmlns="http://www.w3.org/2000/svg" fill="none" viewBox="0 0 14 14"><g clip-path="url(#a)"><path fill="#000" fill-rule="evenodd" d="m12.858 1.753.981.328a.235.235 0 0 1 0 .445l-.981.327a.24.24 0 0 0-.149.149l-.327.981a.235.235 0 0 1-.445 0l-.327-.981a.24.24 0 0 0-.149-.149l-.982-.327a.235.235 0 0 1 0-.445l.982-.328a.24.24 0 0 0 .149-.148l.327-.982a.235.235 0 0 1 .445 0l.327.982c.024.07.079.125.149.148m-7.592-.195c.202-.607 1.06-.607 1.262 0l1.203 3.608 3.608 1.203c.607.202.607 1.06 0 1.262L7.731 8.834l-1.203 3.608c-.202.607-1.06.607-1.262 0L4.063 8.834.455 7.63c-.607-.202-.607-1.06 0-1.262l3.608-1.203zm.631 1.82-.8 2.4a.67.67 0 0 1-.421.421L2.274 7l2.402.8a.67.67 0 0 1 .42.421l.801 2.402.8-2.402a.67.67 0 0 1 .422-.42L9.52 7 7.12 6.2a.67.67 0 0 1-.421-.421zm7.942 8.096-.981-.327a.24.24 0 0 1-.149-.149l-.327-.981a.235.235 0 0 0-.445 0l-.327.981a.24.24 0 0 1-.149.149l-.982.327a.235.235 0 0 0 0 .445l.982.328c.07.023.125.078.149.148l.327.982a.235.235 0 0 0 .445 0l.327-.982a.24.24 0 0 1 .149-.148l.981-.328a.235.235 0 0 0 0-.445" clip-rule="evenodd"/></g><defs><clipPath id="a"><path fill="#fff" d="M0 0h14v14H0z"/></clipPath></defs></svg>
